!! 00000] TT[WS
!!!OTL: Gege song mezi
!!!ARE: Asia, China,ÿShanxi Dingxiang
!! Ethnic Group: Han
!! WI, 140
!!!SCT: J0171
!!!YEM: Copyright 1995, estate of Helmut Schaffrath.
**kern
*ICvox
*Ivox
*M2/4
*k[b-]
*F:
{4f
8f
8d
=1
4c
4c
=2
4cc
8ff
8dd
=3
4cc
8cc
8a}
=4
{8ff
8a
8a
8g
=5
8a
8g
4f
=6
8g
8a
8d
8f
=7
2g}
=8
{8g
8a
4c
=9
8cc
8dd
8cc
8a
=10
4cc
8d
8f
=11
8g
8a
8g
8f}
=12
{4cc
8d
8f
=13
8g
8a
8g
8f
=14
8d
8c
8f
8d
=15
2c}
==
!!!AGN: Xiaodiao. Qingge
!!!ONB: ESAC (Essen Associative Code) Database: CHINA
!!!AMT: simple duple
!!!AIN: vox
!!!EED: Helmut Schaffrath
!!!EEV: 1.0
*-
